X: 11202
Q: "Moderate."
M: 6/8
L: 1/8
K: G
d |\
g2f fed | d3 B3d |
{d}c2B c2A | B3 z2d |\
g2f fed | d3 B2d | {d}c2B c2A | G3 z2 ::\
z |\
d3 ded | c3 A2z | G2z A2z | B2z z2d |\
g2f fed | d3 B2d | {d}c2B c2A | G3 z2 :|


